modules/themify-icons/icons/layout-accordion-list.svg

<?xml version="1.0" encoding="utf-8"?>
<!-- Generated by IcoMoon.io -->
<!DOCTYPE svg PUBLIC "-//W3C//DTD SVG 1.1//EN" "http://www.w3.org/Graphics/SVG/1.1/DTD/svg11.dtd">
<svg version="1.1" xmlns="http://www.w3.org/2000/svg" xmlns:xlink="http://www.w3.org/1999/xlink" width="17" height="17" viewBox="0 0 17 17">
<g>
</g>
	<path d="M4 0v9h13v-9h-13zM16 8h-11v-7h11v7zM0 3h3v-3h-3v3zM1 1h1v1h-1v-1zM4 13h13v-3h-13v3zM5 11h11v1h-11v-1zM0 13h3v-3h-3v3zM1 11h1v1h-1v-1zM4 17h13v-3h-13v3zM5 15h11v1h-11v-1zM0 17h3v-3h-3v3zM1 15h1v1h-1v-1z" fill="#000000" />
</svg>

<svg xmlns="http://www.w3.org/2000/svg" width="17" height="17"><path d="M4 0v9h13V0H4zm12 8H5V1h11v7zM0 3h3V0H0v3zm1-2h1v1H1V1zm3 12h13v-3H4v3zm1-2h11v1H5v-1zm-5 2h3v-3H0v3zm1-2h1v1H1v-1zm3 6h13v-3H4v3zm1-2h11v1H5v-1zm-5 2h3v-3H0v3zm1-2h1v1H1v-1z"/></svg>
